X:218 
T:Tureengarbh Jig, The
S:Padraig O'Keeffe
F:file ID: cre.5/218tureen
B:CRE5.044 (TÃÂÃÂÃÂÃÂºirÃÂÃÂÃÂÃÂ­n Garbh)
N:Pronounced 'too-reen-GARV'
Q:160
M:6/8
R:jig
K:D
B|ABc def|agf a2a|bfe f2e|ded B2A|
ABc def|agf a2b|afe f2e|edc d2:|
e|faa fbb|faa a2b|afd f2e|ded B2A|
ABc def|agf a2b|afe f2e|edc d2:|


%%%

